svgs/sharp-solid/garage-car.svg

<svg xmlns="http://www.w3.org/2000/svg" viewBox="0 0 640 512"><!--! Font Awesome Pro 6.6.0 by @fontawesome - https://fontawesome.com License - https://fontawesome.com/license (Commercial License) Copyright 2024 Fonticons, Inc. --><path d="M0 512L0 128 320 0 640 128l0 384-96 0 0-320L96 192l0 320L0 512zM224 240l192 0 16.4 0 6 15.3 40 102.2 1.7 4.2 0 4.5 0 25.8 0 24 0 64 0 32-64 0 0-32 0-16-192 0 0 16 0 32-64 0 0-32 0-64 0-24 0-24 0-4.5 1.6-4.2 40-104 5.9-15.4 16.5 0zm194.4 96l-18.8-48-159.1 0L222 336l196.4 0zM240 424a24 24 0 1 0 0-48 24 24 0 1 0 0 48zm184-24a24 24 0 1 0 -48 0 24 24 0 1 0 48 0z"/></svg>

<svg xmlns="http://www.w3.org/2000/svg" viewBox="0 0 640 512"><!--! Font Awesome Pro 6.4.0 by @fontawesome - https://fontawesome.com License - https://fontawesome.com/license (Commercial License) Copyright 2023 Fonticons, Inc. --><path d="M0 512V128L320 0 640 128V512H544V192H96V512H0zM224 240H416h16.4l6 15.3 40 102.2 1.7 4.2v4.5V392v24 64 32H416V480 464H224v16 32H160V480 416 392 368v-4.5l1.6-4.2 40-104 5.9-15.4H224zm194.4 96l-18.8-48H240.5L222 336H418.4zM240 424a24 24 0 1 0 0-48 24 24 0 1 0 0 48zm184-24a24 24 0 1 0 -48 0 24 24 0 1 0 48 0z"/></svg>
